img/spine-logo-name.svg

<?xml version="1.0" encoding="utf-8"?>
<!-- Generator: Adobe Illustrator 18.1.1, SVG Export Plug-In . SVG Version: 6.00 Build 0)  -->
<!DOCTYPE svg PUBLIC "-//W3C//DTD SVG 1.1//EN" "http://www.w3.org/Graphics/SVG/1.1/DTD/svg11.dtd">
<svg version="1.1" id="Layer_1" xmlns="http://www.w3.org/2000/svg" xmlns:xlink="http://www.w3.org/1999/xlink" x="0px" y="0px"
	 viewBox="0 0 2000 1000" enable-background="new 0 0 2000 1000" xml:space="preserve">
<g>
	<g>
		<path fill="#656F72" d="M948.1,441.2l-10.6-2.6c-11.2-3.1-15.7-6.4-15.7-15c0-9.7,7.1-13.9,21.2-13.9c12.3,0,23.8,3.1,29.8,5.5
			v-16.8c-6.6-3.3-16.1-6.6-31.5-6.6c-27.3,0-40.1,13.4-40.1,33.5c0,19.8,11.5,28,28.2,32l10.4,2.9c13.7,3.1,17.9,7.3,17.9,15.9
			c0,9.5-7.1,15-23.1,15c-15.9,0-24.3-3.5-33.5-7.1v16.3c9,5.5,22,7.9,36.6,7.9c25.6,0,41.4-11.5,41.4-33.7
			C978.9,454.4,970.1,446.5,948.1,441.2z M1055.2,391.8c-13.7,0-25.4,4.9-32.2,11.2h-0.9v-9h-20.9v145.5h21.6v-39
			c6,3.3,15,6.6,27.6,6.6c30.9,0,50.7-15.7,50.7-57.3v-3.1C1101.1,405.2,1079.7,391.8,1055.2,391.8z M1078.4,452.6
			c0,28.7-11.2,37.5-30.6,37.5c-10.8,0-20.3-3.5-24.9-7.1v-65.7c4.6-3.5,14.1-7.3,26-7.3c19,0,29.5,8.6,29.5,37.9V452.6z
			 M1124.2,373.1h22v-21.2h-22V373.1z M1124.4,506.4h21.6V394h-21.6V506.4z M1235.6,391.8c-13.7,0-28.2,5.3-37.7,11.9h-0.9V394H1176
			v112.4h21.6v-89.1c7.7-3.7,18.5-7.1,28-7.1c17,0,20.5,5.1,20.5,17.4v78.7h21.8v-83.8C1268,400.8,1257.4,391.8,1235.6,391.8z
			 M1386.6,445.6c0-35.5-14.8-53.8-46.5-53.8c-27.1,0-50.3,18.3-50.3,56.9v2.9c0,35.3,18.1,56.9,54.5,56.9
			c18.7,0,31.7-5.7,38.8-10.8v-15.2c-10.4,4.6-20.1,8.2-34.8,8.2c-22,0-34.6-8.6-36.2-34.4h74.5V445.6z M1312.1,440.3
			c1.8-25.1,15.2-31.3,27.1-31.3c16.3,0,24.7,8.6,24.7,31.3H1312.1z"/>
	</g>
</g>
<g>
	<g>
		<path fill="#656F72" d="M616,355.5c-3.6,4.8-5.4,11.3-5.4,19.3v34.8c0,4.1-0.3,8.3-0.8,12.5c-0.5,4.2-1.4,8.1-2.7,11.7
			c-1.3,3.6-3.2,6.7-5.7,9.3c-2.5,2.6-5.6,4.4-9.4,5.4v6.4c7.4,1.9,12.3,6,14.7,12.2c2.4,6.3,3.6,15,3.6,26.2v36.1
			c0,8.3,1.8,14.7,5.6,19.3c3.7,4.6,8.7,7,15.1,7h12.1v-7.5h-8.8c-3.1,0-5.6-0.8-7.5-2.3c-1.9-1.5-3.3-3.5-4.3-5.9
			c-0.9-2.4-1.6-5-1.9-7.9c-0.3-2.8-0.5-5.5-0.5-8.1V487c0-10-1.8-18-5.3-24.1c-3.5-6.1-7.5-9.8-12-11.2v-0.3c1.9-0.7,3.9-2,5.9-4
			c2.1-2,3.9-4.5,5.6-7.6c1.6-3.1,3-6.7,4.1-11c1.1-4.2,1.7-9,1.7-14.3V380c0-2.6,0.2-5.3,0.5-8.1c0.3-2.8,1-5.5,1.9-7.9
			c0.9-2.4,2.4-4.4,4.3-5.9c1.9-1.5,4.4-2.3,7.5-2.3h8.8v-7.5H631C624.6,348.3,619.6,350.7,616,355.5z M848.9,443.2
			c-2.4-2.6-4.3-5.7-5.6-9.3c-1.3-3.6-2.2-7.5-2.7-11.7c-0.5-4.2-0.8-8.4-0.8-12.5v-34.8c0-7.7-1.7-14.1-5.2-19
			c-3.4-4.9-8.6-7.3-15.5-7.3h-11.9v7.2h8.8c3.3,0,5.9,0.8,7.9,2.3c2,1.5,3.4,3.5,4.3,5.9c0.9,2.4,1.4,5,1.7,7.9
			c0.3,2.8,0.4,5.5,0.4,8.1v34.6c0,5.3,0.5,10.1,1.5,14.3c1,4.2,2.4,7.9,4.1,11c1.7,3.1,3.6,5.6,5.6,7.6c2,2,4,3.3,6.1,4v0.3
			c-4.5,1.4-8.5,5.1-12,11.2c-3.5,6.1-5.3,14.1-5.3,24.1v37.1c0,2.6-0.2,5.3-0.5,8.1c-0.3,2.8-1,5.5-1.9,7.9
			c-0.9,2.4-2.4,4.4-4.3,5.9c-1.9,1.5-4.4,2.3-7.5,2.3h-8.8v7.5h12.1c6.4,0,11.4-2.4,15.1-7.2c3.7-4.8,5.6-11.2,5.6-19.1v-36.1
			c0-11.2,1.2-19.9,3.6-26.2c2.4-6.3,7.3-10.4,14.7-12.2v-6.4C854.5,447.6,851.3,445.8,848.9,443.2z"/>
	</g>
</g>
<path fill-rule="evenodd" clip-rule="evenodd" fill="#1A96DE" d="M794.7,527.5H656.5c-2.2,0-4-1.8-4-4v-18c0-2.2,1.8-4,4-4h138.3
	c2.2,0,4,1.8,4,4v18C798.7,525.7,797,527.5,794.7,527.5z M783.1,509.3c-2.9,0-5.2,2.3-5.2,5.2c0,2.9,2.3,5.2,5.2,5.2
	c2.9,0,5.2-2.3,5.2-5.2C788.3,511.6,786,509.3,783.1,509.3z M794.7,485.6H656.5c-2.2,0-4-1.8-4-4v-18c0-2.2,1.8-4,4-4h138.3
	c2.2,0,4,1.8,4,4v18C798.7,483.8,797,485.6,794.7,485.6z M783.1,467.4c-2.9,0-5.2,2.3-5.2,5.2c0,2.9,2.3,5.2,5.2,5.2
	c2.9,0,5.2-2.3,5.2-5.2C788.3,469.8,786,467.4,783.1,467.4z M794.7,444.4H656.5c-2.2,0-4-1.8-4-4v-18c0-2.2,1.8-4,4-4h138.3
	c2.2,0,4,1.8,4,4v18C798.7,442.6,797,444.4,794.7,444.4z M783,426c-2.8,0-5,2.2-5,5s2.2,5,5,5c2.8,0,5-2.2,5-5S785.8,426,783,426z
	 M794.7,402.5H656.5c-2.2,0-4-1.8-4-4v-18c0-2.2,1.8-4,4-4h138.3c2.2,0,4,1.8,4,4v18C798.7,400.7,797,402.5,794.7,402.5z M783,384
	c-2.8,0-5,2.2-5,5c0,2.8,2.2,5,5,5c2.8,0,5-2.2,5-5C788,386.2,785.8,384,783,384z"/>
</svg>

<?xml version="1.0" encoding="utf-8"?>
<svg version="1.1" id="Layer_1" x="0px" y="0px" viewBox="0 0 805 218" enable-background="new 0 0 805 218"
     xmlns="http://www.w3.org/2000/svg">
    <g transform="matrix(1, 0, 0, 1, -586.992249, -343.048035)" id="logo">
        <path fill="#656F72"
              d="M 616 355.5 C 612.4 360.3 610.6 366.8 610.6 374.8 L 610.6 409.6 C 610.6 413.7 610.3 417.9 609.8 422.1 C 609.3 426.3 608.4 430.2 607.1 433.8 C 605.8 437.4 603.9 440.5 601.4 443.1 C 598.9 445.7 595.8 447.5 592 448.5 L 592 454.9 C 599.4 456.8 604.3 460.9 606.7 467.1 C 609.1 473.4 610.3 482.1 610.3 493.3 L 610.3 529.4 C 610.3 537.7 612.1 544.1 615.9 548.7 C 619.6 553.3 624.6 555.7 631 555.7 L 643.1 555.7 L 643.1 548.2 L 634.3 548.2 C 631.2 548.2 628.7 547.4 626.8 545.9 C 624.9 544.4 623.5 542.4 622.5 540 C 621.6 537.6 620.9 535 620.6 532.1 C 620.3 529.3 620.1 526.6 620.1 524 L 620.1 487 C 620.1 477 618.3 469 614.8 462.9 C 611.3 456.8 607.3 453.1 602.8 451.7 L 602.8 451.4 C 604.7 450.7 606.7 449.4 608.7 447.4 C 610.8 445.4 612.6 442.9 614.3 439.8 C 615.9 436.7 617.3 433.1 618.4 428.8 C 619.5 424.6 620.1 419.8 620.1 414.5 L 620.1 380 C 620.1 377.4 620.3 374.7 620.6 371.9 C 620.9 369.1 621.6 366.4 622.5 364 C 623.4 361.6 624.9 359.6 626.8 358.1 C 628.7 356.6 631.2 355.8 634.3 355.8 L 643.1 355.8 L 643.1 348.3 L 631 348.3 C 624.6 348.3 619.6 350.7 616 355.5 Z M 848.9 443.2 C 846.5 440.6 844.6 437.5 843.3 433.9 C 842 430.3 841.1 426.4 840.6 422.2 C 840.1 418 839.8 413.8 839.8 409.7 L 839.8 374.9 C 839.8 367.2 838.1 360.8 834.6 355.9 C 831.2 351 826 348.6 819.1 348.6 L 807.2 348.6 L 807.2 355.8 L 816 355.8 C 819.3 355.8 821.9 356.6 823.9 358.1 C 825.9 359.6 827.3 361.6 828.2 364 C 829.1 366.4 829.6 369 829.9 371.9 C 830.2 374.7 830.3 377.4 830.3 380 L 830.3 414.6 C 830.3 419.9 830.8 424.7 831.8 428.9 C 832.8 433.1 834.2 436.8 835.9 439.9 C 837.6 443 839.5 445.5 841.5 447.5 C 843.5 449.5 845.5 450.8 847.6 451.5 L 847.6 451.8 C 843.1 453.2 839.1 456.9 835.6 463 C 832.1 469.1 830.3 477.1 830.3 487.1 L 830.3 524.2 C 830.3 526.8 830.1 529.5 829.8 532.3 C 829.5 535.1 828.8 537.8 827.9 540.2 C 827 542.6 825.5 544.6 823.6 546.1 C 821.7 547.6 819.2 548.4 816.1 548.4 L 807.3 548.4 L 807.3 555.9 L 819.4 555.9 C 825.8 555.9 830.8 553.5 834.5 548.7 C 838.2 543.9 840.1 537.5 840.1 529.6 L 840.1 493.5 C 840.1 482.3 841.3 473.6 843.7 467.3 C 846.1 461 851 456.9 858.4 455.1 L 858.4 448.7 C 854.5 447.6 851.3 445.8 848.9 443.2 Z"
              id="braces"/>
        <path fill-rule="evenodd" clip-rule="evenodd" fill="#1A96DE"
              d="M 794.7 527.5 L 656.5 527.5 C 654.3 527.5 652.5 525.7 652.5 523.5 L 652.5 505.5 C 652.5 503.3 654.3 501.5 656.5 501.5 L 794.8 501.5 C 797 501.5 798.8 503.3 798.8 505.5 L 798.8 523.5 C 798.7 525.7 797 527.5 794.7 527.5 Z M 783.1 509.3 C 780.2 509.3 777.9 511.6 777.9 514.5 C 777.9 517.4 780.2 519.7 783.1 519.7 C 786 519.7 788.3 517.4 788.3 514.5 C 788.3 511.6 786 509.3 783.1 509.3 Z M 794.7 485.6 L 656.5 485.6 C 654.3 485.6 652.5 483.8 652.5 481.6 L 652.5 463.6 C 652.5 461.4 654.3 459.6 656.5 459.6 L 794.8 459.6 C 797 459.6 798.8 461.4 798.8 463.6 L 798.8 481.6 C 798.7 483.8 797 485.6 794.7 485.6 Z M 783.1 467.4 C 780.2 467.4 777.9 469.7 777.9 472.6 C 777.9 475.5 780.2 477.8 783.1 477.8 C 786 477.8 788.3 475.5 788.3 472.6 C 788.3 469.8 786 467.4 783.1 467.4 Z M 794.7 444.4 L 656.5 444.4 C 654.3 444.4 652.5 442.6 652.5 440.4 L 652.5 422.4 C 652.5 420.2 654.3 418.4 656.5 418.4 L 794.8 418.4 C 797 418.4 798.8 420.2 798.8 422.4 L 798.8 440.4 C 798.7 442.6 797 444.4 794.7 444.4 Z M 783 426 C 780.2 426 778 428.2 778 431 C 778 433.8 780.2 436 783 436 C 785.8 436 788 433.8 788 431 C 788 428.2 785.8 426 783 426 Z M 794.7 402.5 L 656.5 402.5 C 654.3 402.5 652.5 400.7 652.5 398.5 L 652.5 380.5 C 652.5 378.3 654.3 376.5 656.5 376.5 L 794.8 376.5 C 797 376.5 798.8 378.3 798.8 380.5 L 798.8 398.5 C 798.7 400.7 797 402.5 794.7 402.5 Z M 783 384 C 780.2 384 778 386.2 778 389 C 778 391.8 780.2 394 783 394 C 785.8 394 788 391.8 788 389 C 788 386.2 785.8 384 783 384 Z"
              id="rack"/>
    </g>
    <g transform="matrix(1, 0, 0, 1, -586.992249, -343.048035)" id="spine">
        <path fill="#656F72"
              d="M 948.1 441.2 L 937.5 438.6 C 926.3 435.5 921.8 432.2 921.8 423.6 C 921.8 413.9 928.9 409.7 943 409.7 C 955.3 409.7 966.8 412.8 972.8 415.2 L 972.8 398.4 C 966.2 395.1 956.7 391.8 941.3 391.8 C 914 391.8 901.2 405.2 901.2 425.3 C 901.2 445.1 912.7 453.3 929.4 457.3 L 939.8 460.2 C 953.5 463.3 957.7 467.5 957.7 476.1 C 957.7 485.6 950.6 491.1 934.6 491.1 C 918.7 491.1 910.3 487.6 901.1 484 L 901.1 500.3 C 910.1 505.8 923.1 508.2 937.7 508.2 C 963.3 508.2 979.1 496.7 979.1 474.5 C 978.9 454.4 970.1 446.5 948.1 441.2 Z M 1055.2 391.8 C 1041.5 391.8 1029.8 396.7 1023 403 L 1022.1 403 L 1022.1 394 L 1001.2 394 L 1001.2 539.5 L 1022.8 539.5 L 1022.8 500.5 C 1028.8 503.8 1037.8 507.1 1050.4 507.1 C 1081.3 507.1 1101.1 491.4 1101.1 449.8 L 1101.1 446.7 C 1101.1 405.2 1079.7 391.8 1055.2 391.8 Z M 1078.4 452.6 C 1078.4 481.3 1067.2 490.1 1047.8 490.1 C 1037 490.1 1027.5 486.6 1022.9 483 L 1022.9 417.3 C 1027.5 413.8 1037 410 1048.9 410 C 1067.9 410 1078.4 418.6 1078.4 447.9 L 1078.4 452.6 Z M 1124.2 373.1 L 1146.2 373.1 L 1146.2 351.9 L 1124.2 351.9 L 1124.2 373.1 Z M 1124.4 506.4 L 1146 506.4 L 1146 394 L 1124.4 394 L 1124.4 506.4 Z M 1235.6 391.8 C 1221.9 391.8 1207.4 397.1 1197.9 403.7 L 1197 403.7 L 1197 394 L 1176 394 L 1176 506.4 L 1197.6 506.4 L 1197.6 417.3 C 1205.3 413.6 1216.1 410.2 1225.6 410.2 C 1242.6 410.2 1246.1 415.3 1246.1 427.6 L 1246.1 506.3 L 1267.9 506.3 L 1267.9 422.5 C 1268 400.8 1257.4 391.8 1235.6 391.8 Z M 1386.6 445.6 C 1386.6 410.1 1371.8 391.8 1340.1 391.8 C 1313 391.8 1289.8 410.1 1289.8 448.7 L 1289.8 451.6 C 1289.8 486.9 1307.9 508.5 1344.3 508.5 C 1363 508.5 1376 502.8 1383.1 497.7 L 1383.1 482.5 C 1372.7 487.1 1363 490.7 1348.3 490.7 C 1326.3 490.7 1313.7 482.1 1312.1 456.3 L 1386.6 456.3 L 1386.6 445.6 Z M 1312.1 440.3 C 1313.9 415.2 1327.3 409 1339.2 409 C 1355.5 409 1363.9 417.6 1363.9 440.3 L 1312.1 440.3 Z"/>
    </g>
</svg>
